tenants/donaldduck/icons/direction_up.svg

<svg fill="none" height="24" viewBox="0 0 24 24" width="24" xmlns="http://www.w3.org/2000/svg"><path d="m1.99903 15.3399c-.00072-.2133.04633-.4241.13769-.6168.09137-.1928.22473-.3627.39031-.4972l8.56997-6.89997c.2557-.2104.5765-.32544.9075-.32544.3311 0 .6519.11504.9075.32544l8.57 7.14297c.2918.2424.4753.5908.5101.9685.0349.3777-.0817.7538-.3241 1.0455-.12.1445-.2673.2639-.4335.3514-.1661.0875-.3479.1415-.5349.1587-.3777.0349-.7538-.0817-1.0456-.3241l-7.656-6.386-7.65697 6.171c-.20964.1744-.4648.2851-.73534.319-.27055.0339-.54515-.0103-.79135-.1274-.24621-.1172-.45372-.3024-.59802-.5338-.14431-.2313-.21936-.4991-.21629-.7718z" fill="#000"/></svg>

<svg width="24" height="24" viewBox="0 0 24 24" fill="none" xmlns="http://www.w3.org/2000/svg">
<path d="M1.99903 15.3399C1.99831 15.1266 2.04536 14.9158 2.13672 14.7231C2.22809 14.5303 2.36145 14.3604 2.52703 14.2259L11.097 7.32593C11.3527 7.11553 11.6735 7.00049 12.0045 7.00049C12.3356 7.00049 12.6564 7.11553 12.912 7.32593L21.482 14.4689C21.7738 14.7113 21.9573 15.0597 21.9921 15.4374C22.027 15.8151 21.9104 16.1912 21.668 16.4829C21.548 16.6274 21.4007 16.7468 21.2345 16.8343C21.0684 16.9218 20.8866 16.9758 20.6996 16.993C20.3219 17.0279 19.9458 16.9113 19.654 16.6689L11.998 10.2829L4.34103 16.4539C4.13139 16.6283 3.87623 16.739 3.60569 16.7729C3.33514 16.8068 3.06054 16.7626 2.81434 16.6455C2.56813 16.5283 2.36062 16.3431 2.21632 16.1117C2.07201 15.8804 1.99696 15.6126 2.00003 15.3399H1.99903Z" fill="black"/>
</svg>
